X:726
T:Mrs. Mure of Caldwell
R:Strathspey
B:The Athole Collection
M:C
L:1/8
K:D
d|A<F A>B A>Bd>F|A<F A>B A3B|A<F A>B A>Bd>F|E<E F>A B2B:|
|:g|f>de>c d>AF>D|f<d e>c d3g|1 f>de>c d>AF>D| E<E F>A B2B:|2
f<ae<f d>AF>D|E<E F>A B2B||

